X:158
T:Highland Fair. THO5.158
M:C|
L:1/8
B:Thompson's Complete Collection of 200 Favourite Dances Vol.5
F:https://www.libraryofdance.org/manuals/1780c-Thompson-Compleat-5.pdf
Z:vmp. Peter Dunk 2024
Q:1/4=130
K:A
A|E2 E>F E>GA>B|(dcBA) (GABd)|cAeA {d/}c2 BA|G>AB>c cAA:|
|:f|eAcA eA {d/}cB/A/|(ec)(cA) (GB)(Bd)|eAcA eA {d/}cB/A/|G>ABd cAA:|
W:
W:Cast off two Couples and up again ./.
W:leadd down the middle, up again and cast off ./:
W:Set corners :/.
W:& lead outsides :/:

